X:1
T:Idlewilde
T:Intermezzo pastoral
T:Louis F. Gottschalk
T:Copyright 1904 by M. Witmark &amp; Sons
T:Copyright 1904 by M. Witmark &amp; Sons
T:Copyright 1904 by M. Witmark &amp; Sons
T:Copyright 1904 by M. Witmark &amp; Sons
T:Copyright 1904 by M. Witmark &amp; Sons
Z:Copyright 1904 by M. Witmark & Sons
%%score { 1 | 2 }
L:1/8
Q:1/4=95
M:2/4
K:C
V:1 treble nm="Piano" snm="Pno."
V:2 bass 
V:1
"^Allegretto grazioso"!mf! ([EGc]/ [DFB]>[CFA] | [B,FG])G/A/ B/A/G/B/ | d z/ ([Acf]/ [FAd]>[EGc] | %3
 [DFB])G/A/ B/A/G/B/ | d z/ [cea]/ [Acf]>[GBe] | [FBd]G/A/ B/A/G/d/ | g z z2 | z G/A/ B/A/G/d/ | %8
!p! g"_rit." !fermata!z/[Q:1/4=86] !fermata![EGc]/[Q:1/4=76] !fermata![DFB]>[Q:1/4=48]!fermata![CFA] |: %9
[Q:1/4=95]"_a tempo" .[B,FG].[B,FG]/.A/ .[B,FG].[B,FG]/.A/ | .[B,FG](G/A/ B/A/G/[FBf]/) | %11
 [Ece]2 [Ec]2- | [Ec]([Gce][^Fc^d][Gce] | [Bg]) z [FB]2- | [FB]G/A/ B/A/G/f/ | %15
 [Gce]>[^Fc^d] [Gce]2- | [Gce] z/ ([EGc]/ [DFB]>[CFA] | .[B,FG]).[B,FG]/.A/ .[B,FG].[B,FG]/.A/ | %18
 .[B,FG](G/A/ B/A/G/[FBf]/) | [Ece]2 [Ec]2- | [Ec]([Gce][^Fc^d][Gce]) |1 [GB=d]>[GBe] [GBd]>[DGB] | %22
 [CEA]>[EAc] [D^FB]>[CFA] | [B,DG]D/E/ ^F/E/D/A/ | %24
 g z/[Q:1/4=86] !fermata![EGc]/[Q:1/4=76] !fermata![DFB]>[Q:1/4=48]!fermata![CFA] :|2 %25
[Q:1/4=95] [=FA=f] z [FA]2 | [FB]2 [FBe]2 | [Ec]G/A/ B/A/G/d/ |!mf! c z c2 |:[K:F] ([FAd]2 [FAc]2 | %30
 [CFA]2 [A,CF]2 | [B,DF]>!<(!D FD!<)! |!f! [B,CE])!p! (3(d/e/d/ ^cd | .e) z !>![EB]2- | %34
 [EB]!p! (3(d/e/d/ ^cd | .e) z !>![FA]2- | [FA]!mf! (3c/d/c/ (=Bc) | [FAd]2 [FAc]2 | %38
 ([CFA]2 [A,CF]2 | [G,CF]2 [G,CE]2-) | [G,CE] [Ec][E=B][EA] | .[CFA] z !>![=B,FG]2- | %42
 [B,FG] .[Af].[Ge].[Fd] | .[Ec]G/A/ =B/A/G/d/ |1 c z c2 :|2 %45
 c!p!"_rit." z/[Q:1/4=86] (!fermata![EGc]/[Q:1/4=76] !fermata![DF=B]>[Q:1/4=48]!fermata![CFA] || %46
[K:C][Q:1/4=95]"_a tempo" .[B,FG]).[B,FG]/.A/ .[B,FG].[B,FG]/.A/ | .[B,FG](G/A/ B/A/G/[FBf]/) | %48
 [Ece]2 [Ec]2- |!<(! [Ec]([Gce][^Fc^d][Gce]!<)! |!mp! .[Bg]) z !>![FB]2- | [FB]G/A/ B/A/G/f/ | %52
 ([Gce]>[^Fc^d] [Gce]2- | [Gce]) z/ ([EGc]/ [DFB]>[CFA] | .[B,FG]).[B,FG]/.A/ .[B,FG].[B,FG]/.A/ | %55
 .[B,FG](G/A/ B/A/G/[FBf]/ | [Ece]2) [Ec]2- | [Ec]([Gce][^Fc^d][Gce] | [Adf]) z [FA]2 | %59
 [FB]2 [FBe]2 | [Ec]G/A/ B/A/G/d/ | c z!f!{/c} !>!F2 |:[K:Ab]{/c} !>!E2{/c'} [cf]2 | %63
{/c'} [ce]2{/c} !>![CF]2 |{/d} !>![DG]2{/d'} [df]2 |{/d'} [dg] (CD=D | E2) ([DGc][DG] | %67
 [DF]2) ([DGc][DG] | [CF]>)(CF>C | E2){/c} !>!F2 |{/c} !>!E2{/c'} [cf]2 | %71
{/c'} [ce]2{/c} !>![CF]2 |1{/B} !>![B,EG]2{/c'} [eg]2 |{/b} [eg] (A,B,=B, | C2) ([A,A]C | %75
 [A,=D]2) ([A,G]D | [G,E]4-) | [G,E] z{/c} F2 :|2{/c} !>![C=E]2{/=b} [c=e]2 |{/=a} [c=e]2 [C=E]2 | %80
 [=A,=DF]2 [=A=df][FA] | [F=B=e]2 [FB=d]2 | [=Ec]4- | %83
 [Ec]"_rit."!pp! !fermata!z/[Q:1/4=86] (!fermata![=egc']/[Q:1/4=76] !fermata![=df=b]>[Q:1/4=48]!fermata![cf=a]) || %84
[K:C][Q:1/4=95]"_a tempo" [Bfg].[Bfg]/.a/ .[Bfg].[Bfg]/.a/ | .[Bfg](g/a/ b/a/g/[fbf']/) | %86
 [ec'e']2 [ec']2- | [ec']([gc'e'][^fc'^d'][gc'e'] | [bg']) z !>![fb]2- | [fb]g/a/ b/a/g/f'/ | %90
 ([gc'e']>[^fc'^d'] [gc'e']2- | [gc'e']) z/ ([egc']/ [dfb]>[cfa]) | %92
 [Bfg].[Bfg]/.a/ .[Bfg].[Bfg]/.a/ | .[Bfg](g/a/ b/a/g/[fbf']/) | [ec'e']2 [ec']2- | %95
!<(! [ec']([gc'e'][^fc'^d'][gc'e']!<)! |!p! [ad'f']) z [fa]2 | [fb]2 [fbe']2 | %98
 [ec']g/a/ b/a/g/d'/ | c' z!mf! c2 ||[K:F] ([FAd]2 [FAc]2 | [CFA]2 [A,CF]2 | [B,DF]>!<(!D FD!<)! | %103
!f! [B,CE])!p! (3(d/e/d/ ^cd | .e) z !>![EB]2- | [EB]!p! (3(d/e/d/ ^cd | e) z !>![FA]2- | %107
 [FA]!mf! (3c/d/c/ (=Bc) | [FAd]2 [FAc]2 | ([CFA]2 [A,CF]2 | [G,CF]2 [G,CE]2- | %111
 [G,CE]) .[Ec].[E=B].[EA] | .[CFA] z !>![=B,FG]2- | [B,FG] .[Af].[Ge].[Fd] | [Ec]G/A/ =B/A/G/d/ | %115
 c!p!"_rit." z/[Q:1/4=86] !fermata![EGc]/[Q:1/4=76] !fermata![DF=B]>[Q:1/4=48]!fermata![CFA] || %116
[K:C][Q:1/4=95]"_a tempo" [B,FG].[B,FG]/.A/ .[B,FG].[B,FG]/.A/ | .[B,FG](G/A/ B/A/G/[FBf]/) | %118
 [Ece]2 [Ec]2- |!<(! [Ec]([Gce][^Fc^d][Gce]!<)! |!mp! .[Bg]) z !>![FB]2- | [FB]G/A/ B/A/G/f/ | %122
 ([Gce]>[^Fc^d] [Gce]2- | [Gce]) z/ ([EGc]/ [DFB]>[CFA] | [B,FG])[B,FG]/A/ [B,FG][B,FG]/A/ | %125
 [B,FG](G/A/ B/A/G/[FBf]/ | [Ece]2) [Ec]2- | [Ec]([Gce][^Fc^d][Gce] | [FAf]) z [FA]2 | %129
 [FB]2 [FBe]2 | [Ec]4- | [Ec] z/!mf! ([EGc]/ [DFB]>[CFA] | [B,FG])G/A/ B/A/G/e/ | %133
 c z/!pp! [egc']/ [dfb]>[cfa] | [Bfg]g/a/ b/a/g/e'/ | c' z/!mf! ([EGc]/ [DFB]>[CFA] | %136
 [B,FG]) z z2 | ([FBg]4 |!pp! [Ec]2) z2 |!ff! [cegc'] z/ |] %140
V:2
 z/ z2 | .G,.G,.G,.G, | .G,.G,.G,.G, | .G,.G,.G,.G, | .G,.G,.G,.G, | .G, z z2 | %6
 z G,,/A,,/ B,,/A,,/G,,/D,/ | G, z z2 | !fermata!z4 |: D,G, G,,G, | D,G, G,,G, | C,G, G,,G, | %12
 C,G, G,,G, | D,G, G,,G, | D,G, G,,G, | C,G, G,,G, | C, z z2 | D,G, G,,G, | D,G, G,,G, | %19
 C,G, G,,G, | C,G, G,,G, |1 D,G, B,G, | D,,D, D,,D, | [G,,G,] z (([D,A,C]2 | [G,B,])) z z2 :|2 %25
 D,A,DA, | G,,D,G,D, | [C,G,] z (([G,DF]2 | [CE])) z z2 |:[K:F] F,,C,F,C, | F,,C,F,C, | %31
 [G,,D,F,]>D, F,D, | C, z z2 | .C,!<(!z/(G,/ C,).G,!<)! |!mp! .C z z2 | .F,,!<(!z/(C/ F,).C!<)! | %36
!mp! F z z2 | F,,C,F,C, | F,,C,F,C, | G,,C,E,C, | G,, z z2 | G,,D,G,D, | G,, z z2 | %43
 [C,G,] z (([G,DF]2 |1 [CE])) z z2 :|2 (([CE] z)) z2 ||[K:C] D,G, G,,G, | D,G, G,,G, | C,G, G,,G, | %49
 C,G, G,,G, | D,G, G,,G, | D,G, G,,G, | C,G, G,,G, | C, z z2 | D,G, G,,G, | D,G, G,,G, | %56
 C,G, G,,G, | C,G, G,,G, | D,A,DA, | G,,D,G,D, | [C,G,] z (([G,DF]2 | [CE])) z z2 |: %62
[K:Ab] A,,E,A,E, | A,,E,A,E, | B,,E,B,E, | B,,E,G,E, | E,,B,,E,B,, | E,,B,,E,B,, | A,,E,A,E, | %69
 A,,E,A,E, | A,,E,A,E, | A,,E,A,E, |1 B,,E,B,E, | B,,E,G,E, | F,,C,F,C, | B,,,F,,B,,F,, | %76
 E,,B,,E,B,, | E,, z z2 :|2 G,,=E,G,E, | G,,=E,G,E, | =D,,=A,,=D,A,, | G,,=D,G,D, | C,G,CG, | %83
 C, z z2 ||[K:C][K:treble] DGG,G | DGG,G | CGG,G | CGG,G | DGG,G | DGG,G | CGG,G | C z z2 | DGG,G | %93
 DGG,G | CGG,G | CGG,G | DAdA | G,DGD | [CG] z (([Gdf]2 | [ce])) z z2 ||[K:F][K:bass] F,,C,F,C, | %101
 F,,C,F,C, | [G,,D,F,]>D, F,D, | C, z z2 | .C,!<(!z/(G,/ C,).G,!<)! |!mp! .C z z2 | %106
 .F,,!<(!z/(C/ F,).C!<)! |!mp! F z z2 | F,,C,F,C, | F,,C,F,C, | G,,C,E,C, | G,, z z2 | G,,D,G,D, | %113
 G,, z z2 | [C,G,] z (([G,DF]2 | [CE])) z z2 ||[K:C] D,G, G,,G, | D,G, G,,G, | C,G, G,,G, | %119
 C,G, G,,G, | D,G, G,,G, | D,G, G,,G, | C,G, G,,G, | C, z z2 | D,G, G,,G, | D,G, G,,G, | %126
 C,G, G,,G, | C,G, G,,G, | D,A,DA, | G,,D,G,D, | C,G,CG, | C, z z2 | [G,,D,G,] z (([G,DF]2 | %133
 [CE])) z z2 |[K:treble] [G,DG] z (([Gdf]2 | [ce])) z z2 |[K:bass] [G,,D,G,] z z2 | ([G,,D,G,]4 | %138
 [C,G,]2) z2 | [C,,C,] z/ |] %140

